**harmony	**harte	**kern	**silbe	**kern	**silbe	**rhyme	**phrase
*M4/4	*M4/4	*ICvox	*	*ICvox	*	*	*
*	*	*VRlead	*	*VRharmonize	*	*	*
*	*	*Hstimme	*	*Nstimme	*	*	*
*e:	*e:	*e:	*	*e:	*	*	*e:
*	*	*M4/4	*	*M4/4	*	*	*
*	*	*clefG2	*	*clefG2	*	*	*
1r;	1r	r;	.	r;	.	.	.
1r;	1r	r;	.	r;	.	.	.
=1	=1	=1	=1	=1	=1	=1	=1
*>Letter>A	*>Letter>A	*>Letter>A	*>Letter>A	*>Letter>A	*>Letter>A	*>Letter>A	*>Letter>A
*>Label>Intro	*>Label>Intro	*>Label>Intro	*>Label>Intro	*>Label>Intro	*>Label>Intro	*>Label>Intro	*>Label>Intro
!Shuffle	!Shuffle	!	!	!	!	!	!
1Em	E:min	1r	.	1r	.	.	newline
=2	=2	=2	=2	=2	=2	=2	=2
1Em	E:min	1r	.	1r	.	.	.
=3	=3	=3	=3	=3	=3	=3	=3
1Em	E:min	1r	.	1r	.	.	.
=4	=4	=4	=4	=4	=4	=4	=4
1Em	E:min	1r	.	1r	.	.	.
=5	=5	=5	=5	=5	=5	=5	=5
1Em	E:min	1r	.	1r	.	.	newline
=6	=6	=6	=6	=6	=6	=6	=6
1Em	E:min	1r	.	1r	.	.	.
=7	=7	=7	=7	=7	=7	=7	=7
1Em	E:min	1r	.	1r	.	.	.
=8	=8	=8	=8	=8	=8	=8	=8
1Em	E:min	1r	.	1r	.	.	.
=9	=9	=9	=9	=9	=9	=9	=9
1Em	E:min	1r	.	1r	.	.	newline
=10	=10	=10	=10	=10	=10	=10	=10
1Em	E:min	1r	.	1r	.	.	.
=11	=11	=11	=11	=11	=11	=11	=11
1Em	E:min	1r	.	1r	.	.	.
=12	=12	=12	=12	=12	=12	=12	=12
1Em	E:min	2r	.	1r	.	.	.
.	.	8r	.	.	.	.	.
.	.	8d	Well	.	.	.	.
.	.	8e	we	.	.	.	.
.	.	[8g	got	.	.	.	.
=13	=13	=13	=13	=13	=13	=13	=13
*>Letter>A	*>Letter>A	*>Letter>A	*>Letter>A	*>Letter>A	*>Letter>A	*>Letter>A	*>Letter>A
*>Label>Verse	*>Label>Verse	*>Label>Verse	*>Label>Verse	*>Label>Verse	*>Label>Verse	*>Label>Verse	*>Label>Verse
1Em	E:min	8g]	_	1r	.	.	newline
.	.	4g	no	.	.	.	.
.	.	[8e	choice.	.	.	A	.
.	.	2e]	_	.	.	.	.
=14	=14	=14	=14	=14	=14	=14	=14
1Em	E:min	2r	.	1r	.	.	.
.	.	8r	.	.	.	.	.
.	.	8e	All	.	.	.	.
.	.	8e	the	.	.	.	.
.	.	[8g	girls	.	.	.	.
=15	=15	=15	=15	=15	=15	=15	=15
1Em	E:min	4g]	_	1r	.	.	.
.	.	8d	and	.	.	.	.
.	.	[8e	boys	.	.	A	.
.	.	2e]	_	.	.	.	.
=16	=16	=16	=16	=16	=16	=16	=16
1Em	E:min	2r	.	1r	.	.	.
.	.	8r	.	.	.	.	.
.	.	8e	ma-	.	.	.	.
.	.	8d	-kin'	.	.	.	.
.	.	[8e	all	.	.	.	.
=17	=17	=17	=17	=17	=17	=17	=17
1Em	E:min	4e]	_	1r	.	.	newline
.	.	8g	the	.	.	.	.
.	.	16e	noise|	.	.	A	.
.	.	16d	_	.	.	.	.
.	.	2e	_	.	.	.	.
=18	=18	=18	=18	=18	=18	=18	=18
1Em	E:min	2r	.	1r	.	.	.
.	.	8r	.	.	.	.	.
.	.	8d	'cause	.	.	.	.
.	.	8e	they	.	.	.	.
.	.	[8g	found	.	.	.	.
=19	=19	=19	=19	=19	=19	=19	=19
1Em	E:min	8g]	_	1r	.	.	.
.	.	8g	new	.	.	.	.
.	.	8d	_	.	.	.	.
.	.	[8e	toys.	.	.	A	.
.	.	4e]	_	.	.	.	.
.	.	4r	.	.	.	.	.
=20	=20	=20	=20	=20	=20	=20	=20
1Em	E:min	2r	.	1r	.	.	.
.	.	8r	.	.	.	.	.
.	.	4e	Well	.	.	.	.
.	.	8d	we	.	.	.	.
=21	=21	=21	=21	=21	=21	=21	=21
*>Letter>C	*>Letter>C	*>Letter>C	*>Letter>C	*>Letter>C	*>Letter>C	*>Letter>C	*>Letter>C
*>Label>Prechorus	*>Label>Prechorus	*>Label>Prechorus	*>Label>Prechorus	*>Label>Prechorus	*>Label>Prechorus	*>Label>Prechorus	*>Label>Prechorus
1CM	C:maj	4e	can't	1r	.	.	newline
.	.	8d	sa-	.	.	.	.
.	.	8e	-lute	.	.	B	.
.	.	8~G	ya,	.	.	.	.
.	.	8r	.	.	.	.	.
.	.	4e	Can't	.	.	.	.
=22	=22	=22	=22	=22	=22	=22	=22
2.CM	C:maj	4e	find	1r	.	.	.
.	.	8d	a	.	.	.	.
.	.	8g	flag.	.	.	C	.
.	.	4e	_	.	.	.	.
4DM	D:maj	8r	.	.	.	.	.
.	.	8e	If	.	.	.	.
=23	=23	=23	=23	=23	=23	=23	=23
*	*	*g:	*	*g:	*	*	*
1E-M	E-:maj	4g	that	1r	.	.	.
.	.	4g	don't	.	.	.	.
.	.	8g	suit	.	.	B	.
.	.	8~e-	ya:	.	.	.	.
.	.	4r	.	.	.	.	.
=24	=24	=24	=24	=24	=24	=24	=24
1E-M	E-:maj	4g	that's	1r	.	.	.
.	.	8g	a	.	.	.	.
.	.	4.~e-	drag.	.	.	C	.
.	.	4r	.	.	.	.	.
=25	=25	=25	=25	=25	=25	=25	=25
*>Letter>B	*>Letter>B	*>Letter>B	*>Letter>B	*>Letter>B	*>Letter>B	*>Letter>B	*>Letter>B
*>Label>Chorus	*>Label>Chorus	*>Label>Chorus	*>Label>Chorus	*>Label>Chorus	*>Label>Chorus	*>Label>Chorus	*>Label>Chorus
*g:	*g:	*g:	*	*g:	*	*	*g:
1Gm	G:min	1g	School's-	1r	.	.	newline
=26	=26	=26	=26	=26	=26	=26	=26
!Tonic pedal G	!Tonic pedal G	!	!	!	!	!	!
2B-M	B-:maj	4f	-out	1r	.	.	.
.	.	4r	.	.	.	.	.
2CM	C:maj	4f	for	.	.	.	.
.	.	4r	.	.	.	.	.
=27	=27	=27	=27	=27	=27	=27	=27
1Gm	G:min	8f	su-	1r	.	.	.
.	.	8g	-mmer.	.	.	.	.
.	.	4r	.	.	.	.	.
.	.	2r	.	.	.	.	.
=28	=28	=28	=28	=28	=28	=28	=28
1Gm	G:min	1r	.	1r	.	.	.
=29	=29	=29	=29	=29	=29	=29	=29
1Gm	G:min	1g	Shool's	1r	.	.	newline
=30	=30	=30	=30	=30	=30	=30	=30
!Tonic pedal G	!Tonic pedal G	!	!	!	!	!	!
2B-M	B-:maj	4f	out	1r	.	.	.
.	.	4r	.	.	.	.	.
2CM	C:maj	4f	for-	.	.	.	.
.	.	4r	.	.	.	.	.
=31	=31	=31	=31	=31	=31	=31	=31
1Gm	G:min	8f	-e-	1r	.	.	.
.	.	8g	-ver.	.	.	.	.
.	.	4r	.	.	.	.	.
.	.	2r	.	.	.	.	.
=32	=32	=32	=32	=32	=32	=32	=32
1Gm	G:min	1r	.	1r	.	.	.
=33	=33	=33	=33	=33	=33	=33	=33
1Gm	G:min	2.g	School's	1r	.	.	newline
.	.	4g	been	.	.	.	.
=34	=34	=34	=34	=34	=34	=34	=34
!Tonic pedal G	!Tonic pedal G	!	!	!	!	!	!
2B-M	B-:maj	4f	blown	1r	.	.	.
.	.	4r	.	.	.	.	.
2CM	C:maj	4f	to	.	.	.	.
.	.	4r	.	.	.	.	.
=35	=35	=35	=35	=35	=35	=35	=35
1Gm	G:min	8f	pie-	1r	.	.	.
.	.	8g	-ces.	.	.	.	.
.	.	4r	.	.	.	.	.
.	.	2r	.	.	.	.	.
=36	=36	=36	=36	=36	=36	=36	=36
1Gm	G:min	1r	.	1r	.	.	.
=37	=37	=37	=37	=37	=37	=37	=37
*>Letter>D	*>Letter>D	*>Letter>D	*>Letter>D	*>Letter>D	*>Letter>D	*>Letter>D	*>Letter>D
*>Label>Interlude	*>Label>Interlude	*>Label>Interlude	*>Label>Interlude	*>Label>Interlude	*>Label>Interlude	*>Label>Interlude	*>Label>Interlude
*G:	*G:	*G:	*	*G:	*	*	*G:
1AM	A:maj	1r	.	1r	.	.	newline
=38	=38	=38	=38	=38	=38	=38	=38
!Pedal A	!Pedal A	!	!	!	!	!	!
1GM	G:maj	1r	.	1r	.	.	.
=39	=39	=39	=39	=39	=39	=39	=39
1FM	F:maj	1r	.	1r	.	.	.
=40	=40	=40	=40	=40	=40	=40	=40
1FM	F:maj	1r	.	1r	.	.	.
=41	=41	=41	=41	=41	=41	=41	=41
*>Letter>E	*>Letter>E	*>Letter>E	*>Letter>E	*>Letter>E	*>Letter>E	*>Letter>E	*>Letter>E
*>Label>Bridge	*>Label>Bridge	*>Label>Bridge	*>Label>Bridge	*>Label>Bridge	*>Label>Bridge	*>Label>Bridge	*>Label>Bridge
1CM	C:maj	2g	No	1r	.	.	newline
.	.	2f#	more	.	.	.	.
=42	=42	=42	=42	=42	=42	=42	=42
1CM	C:maj	2e	pen-	1r	.	.	.
.	.	4f#	-cils;	.	.	.	.
.	.	4r	.	.	.	.	.
=43	=43	=43	=43	=43	=43	=43	=43
1CM	C:maj	2g	No	1r	.	.	.
.	.	2f#	more	.	.	.	.
=44	=44	=44	=44	=44	=44	=44	=44
1CM	C:maj	2e	bo-	1r	.	(D	.
.	.	4f#	-oks;	.	.	D)	.
.	.	4r	.	.	.	.	.
=45	=45	=45	=45	=45	=45	=45	=45
1DM	D:maj	2g	No	2b	No	.	newline
.	.	2f#	more	2a	more	.	.
=46	=46	=46	=46	=46	=46	=46	=46
1DM	D:maj	2e	tea-	2g	tea-	.	.
.	.	4f#	-chers'	4a	-chers'	.	.
.	.	4r	.	4r	.	.	.
=47	=47	=47	=47	=47	=47	=47	=47
1DM	D:maj	2g	dir-	2b	dir-	.	.
.	.	2f#	-ty	2a	-ty	.	.
=48	=48	=48	=48	=48	=48	=48	=48
1DM	D:maj	4e	looks.	2g	lo-	D	.
.	.	8r	.	.	.	.	.
.	.	[8~g	Yeow!	.	.	.	.
.	.	2~g]	_	4a	-oks.	.	.
.	.	.	.	4r	.	.	.
=49	=49	=49	=49	=49	=49	=49	=49
*>Letter>A	*>Letter>A	*>Letter>A	*>Letter>A	*>Letter>A	*>Letter>A	*>Letter>A	*>Letter>A
*>Label>Solo	*>Label>Solo	*>Label>Solo	*>Label>Solo	*>Label>Solo	*>Label>Solo	*>Label>Solo	*>Label>Solo
*e:	*e:	*e:	*	*e:	*	*	*e:
1Em	E:min	1r	.	1r	.	.	newline
=50	=50	=50	=50	=50	=50	=50	=50
1Em	E:min	1r	.	1r	.	.	.
=51	=51	=51	=51	=51	=51	=51	=51
1Em	E:min	1r	.	1r	.	.	.
=52	=52	=52	=52	=52	=52	=52	=52
1Em	E:min	1r	.	1r	.	.	.
=53	=53	=53	=53	=53	=53	=53	=53
1Em	E:min	1r	.	1r	.	.	newline
=54	=54	=54	=54	=54	=54	=54	=54
1Em	E:min	1r	.	1r	.	.	.
=55	=55	=55	=55	=55	=55	=55	=55
1Em	E:min	1r	.	1r	.	.	.
=56	=56	=56	=56	=56	=56	=56	=56
1Em	E:min	2r	.	1r	.	.	.
.	.	8r	.	.	.	.	.
.	.	8d	Well	.	.	.	.
.	.	8e	we	.	.	.	.
.	.	[8g	got	.	.	.	.
=57	=57	=57	=57	=57	=57	=57	=57
*>Letter>A	*>Letter>A	*>Letter>A	*>Letter>A	*>Letter>A	*>Letter>A	*>Letter>A	*>Letter>A
*>Label>Verse	*>Label>Verse	*>Label>Verse	*>Label>Verse	*>Label>Verse	*>Label>Verse	*>Label>Verse	*>Label>Verse
1Em	E:min	8g]	_	1r	.	.	newline
.	.	4g	no	.	.	.	.
.	.	[8e	class;	.	.	.	.
.	.	2e]	_	.	.	.	.
=58	=58	=58	=58	=58	=58	=58	=58
1Em	E:min	2r	.	1r	.	.	.
.	.	8r	.	.	.	.	.
.	.	8d	and	.	.	.	.
.	.	8e	we	.	.	.	.
.	.	[8g	got	.	.	.	.
=59	=59	=59	=59	=59	=59	=59	=59
1Em	E:min	8g]	_	1r	.	.	.
.	.	4g	no	.	.	.	.
.	.	8~a	princ-	.	.	.	.
.	.	8~g	-i-	.	.	.	.
.	.	4.~e	-ples;	.	.	.	.
=60	=60	=60	=60	=60	=60	=60	=60
1Em	E:min	2r	.	1r	.	.	.
.	.	8r	.	.	.	.	.
.	.	8d	and	.	.	.	.
.	.	8e	we	.	.	.	.
.	.	[8g	got	.	.	.	.
=61	=61	=61	=61	=61	=61	=61	=61
1Em	E:min	8g]	_	1r	.	.	newline
.	.	4~a	no	.	.	.	.
.	.	8~a	in-	.	.	.	.
.	.	8~g	-no-	.	.	.	.
.	.	4.~e	-cence.	.	.	.	.
=62	=62	=62	=62	=62	=62	=62	=62
1Em	E:min	2r	.	1r	.	.	.
.	.	8r	.	.	.	.	.
.	.	8g	We	.	.	.	.
.	.	12g	can't	.	.	.	.
.	.	12g	e-	.	.	.	.
.	.	12g	-ven	.	.	.	.
=63	=63	=63	=63	=63	=63	=63	=63
1Em	E:min	12g	think	1r	.	.	.
.	.	12g	of	.	.	.	.
.	.	12g	a	.	.	.	.
.	.	8g	word	.	.	.	.
.	.	8e	that	.	.	.	.
.	.	[2g	rhymes.	.	.	.	.
=64	=64	=64	=64	=64	=64	=64	=64
1Em	E:min	4g]	_	1r	.	.	.
.	.	4r	.	.	.	.	.
.	.	2r	.	.	.	.	.
=65	=65	=65	=65	=65	=65	=65	=65
*>Letter>B	*>Letter>B	*>Letter>B	*>Letter>B	*>Letter>B	*>Letter>B	*>Letter>B	*>Letter>B
*>Label>Chorus	*>Label>Chorus	*>Label>Chorus	*>Label>Chorus	*>Label>Chorus	*>Label>Chorus	*>Label>Chorus	*>Label>Chorus
*g:	*g:	*g:	*	*g:	*	*	*g:
1Gm	G:min	1g	School's-	1r	.	.	newline
=66	=66	=66	=66	=66	=66	=66	=66
!Tonic pedal G	!Tonic pedal G	!	!	!	!	!	!
2B-M	B-:maj	4f	-out	1r	.	.	.
.	.	4r	.	.	.	.	.
2CM	C:maj	4f	for	.	.	.	.
.	.	4r	.	.	.	.	.
=67	=67	=67	=67	=67	=67	=67	=67
1Gm	G:min	8f	su-	1r	.	.	.
.	.	8g	-mmer.	.	.	.	.
.	.	4r	.	.	.	.	.
.	.	2r	.	.	.	.	.
=68	=68	=68	=68	=68	=68	=68	=68
1Gm	G:min	1r	.	1r	.	.	.
=69	=69	=69	=69	=69	=69	=69	=69
1Gm	G:min	1g	Shool's	1r	.	.	newline
=70	=70	=70	=70	=70	=70	=70	=70
!Tonic pedal G	!Tonic pedal G	!	!	!	!	!	!
2B-M	B-:maj	4f	out	1r	.	.	.
.	.	4r	.	.	.	.	.
2CM	C:maj	4f	for-	.	.	.	.
.	.	4r	.	.	.	.	.
=71	=71	=71	=71	=71	=71	=71	=71
1Gm	G:min	8f	-e-	1r	.	.	.
.	.	4.g	-ver.	.	.	.	.
.	.	2r	.	.	.	.	.
=72	=72	=72	=72	=72	=72	=72	=72
1Gm	G:min	2r	.	1r	.	.	.
.	.	4r	.	.	.	.	.
.	.	4~d	My-	.	.	.	.
=73	=73	=73	=73	=73	=73	=73	=73
1Gm	G:min	2.g	-school's-	1r	.	.	newline
.	.	4g	-been-	.	.	.	.
=74	=74	=74	=74	=74	=74	=74	=74
!Pedal notes of Tonic Gm triad	!Pedal notes of Tonic Gm triad	!	!	!	!	!	!
1FM	F:maj	4f	-blown-	1r	.	.	.
.	.	4r	.	.	.	.	.
.	.	2d	-to-	.	.	.	.
=75	=75	=75	=75	=75	=75	=75	=75
1CM	C:maj	8c	-pie-	1r	.	.	.
.	.	[8G	-ces.	.	.	.	.
.	.	2G]	_	.	.	.	.
.	.	4r	.	.	.	.	.
=76	=76	=76	=76	=76	=76	=76	=76
1CM	C:maj	1r	.	1r	.	.	.
=77	=77	=77	=77	=77	=77	=77	=77
*>Letter>E	*>Letter>E	*>Letter>E	*>Letter>E	*>Letter>E	*>Letter>E	*>Letter>E	*>Letter>E
*>Label>Bridge	*>Label>Bridge	*>Label>Bridge	*>Label>Bridge	*>Label>Bridge	*>Label>Bridge	*>Label>Bridge	*>Label>Bridge
*G:	*G:	*G:	*	*G:	*	*	*G:
1CM	C:maj	2g	No	1r	.	.	newline
.	.	2f#	more	.	.	.	.
=78	=78	=78	=78	=78	=78	=78	=78
1CM	C:maj	2e	pen-	1r	.	.	.
.	.	4f#	-cils;	.	.	.	.
.	.	4r	.	.	.	.	.
=79	=79	=79	=79	=79	=79	=79	=79
1CM	C:maj	2g	No	1r	.	.	.
.	.	2f#	more	.	.	.	.
=80	=80	=80	=80	=80	=80	=80	=80
1CM	C:maj	2e	bo-	1r	.	(D	.
.	.	4f#	-oks;	.	.	D)	.
.	.	4r	.	.	.	.	.
=81	=81	=81	=81	=81	=81	=81	=81
1DM	D:maj	2g	No	1r	.	.	newline
.	.	2f#	more	.	.	.	.
=82	=82	=82	=82	=82	=82	=82	=82
1DM	D:maj	2e	tea-	1r	.	.	.
.	.	4f#	-chers'	.	.	.	.
.	.	4r	.	.	.	.	.
=83	=83	=83	=83	=83	=83	=83	=83
1DM	D:maj	2g	dir-	1r	.	.	.
.	.	2f#	-ty	.	.	.	.
=84	=84	=84	=84	=84	=84	=84	=84
1DM	D:maj	2e	lo-	1r	.	(D	.
.	.	4f#	-oks.	.	.	D)	.
.	.	4r	.	.	.	.	.
=85	=85	=85	=85	=85	=85	=85	=85
1CM	C:maj	2g	Out	2b	Out	.	newline
.	.	2f#	for	2a	for	.	.
=86	=86	=86	=86	=86	=86	=86	=86
1CM	C:maj	2e	sum-	2g	sum-	.	.
.	.	4f#	-mer;	4a	-mer;	.	.
.	.	4r	.	4r	.	.	.
=87	=87	=87	=87	=87	=87	=87	=87
1CM	C:maj	2g	Out	2b	Out	.	.
.	.	2f#	for	2a	for	.	.
=88	=88	=88	=88	=88	=88	=88	=88
1CM	C:maj	2e	fa-	2g	fa-	(E	.
.	.	4f#	-ll;	4a	-ll;	E)	.
.	.	4r	.	4r	.	.	.
=89	=89	=89	=89	=89	=89	=89	=89
1DM	D:maj	2g	We-	2b	We-	.	newline
.	.	2f#	-might-	2a	-might-	.	.
=90	=90	=90	=90	=90	=90	=90	=90
1DM	D:maj	2e	-not-	2g	-not-	.	.
.	.	4f#	-go-	4a	-go-	.	.
.	.	4r	.	4r	.	.	.
=91	=91	=91	=91	=91	=91	=91	=91
1DM	D:maj	2g	-back-	2b	-back-	.	.
.	.	2f#	-at-	2a	-at-	.	.
=92	=92	=92	=92	=92	=92	=92	=92
1DM	D:maj	2.e	-all.	2g	-a-	E	.
.	.	.	.	2a	-ll.	.	.
.	.	4r	.	.	.	.	.
=93	=93	=93	=93	=93	=93	=93	=93
*>Letter>B	*>Letter>B	*>Letter>B	*>Letter>B	*>Letter>B	*>Letter>B	*>Letter>B	*>Letter>B
*>Label>Chorus	*>Label>Chorus	*>Label>Chorus	*>Label>Chorus	*>Label>Chorus	*>Label>Chorus	*>Label>Chorus	*>Label>Chorus
*g:	*g:	*g:	*	*g:	*	*	*g:
1Gm	G:min	1g	Shool's	1g	Shool's	.	newline
=94	=94	=94	=94	=94	=94	=94	=94
!Tonic pedal G	!Tonic pedal G	!	!	!	!	!	!
2B-M	B-:maj	4f	out	2b-	out	.	.
.	.	4r	.	.	.	.	.
2CM	C:maj	4f	for-	2cc	for-	.	.
.	.	4r	.	.	.	.	.
=95	=95	=95	=95	=95	=95	=95	=95
1Gm	G:min	8f	-e-	8f	-e-	.	.
.	.	8g	-ver.	8g	-ver.	.	.
.	.	4r	.	4r	.	.	.
.	.	2r	.	2r	.	.	.
=96	=96	=96	=96	=96	=96	=96	=96
1Gm	G:min	1r	.	1r	.	.	.
=97	=97	=97	=97	=97	=97	=97	=97
1Gm	G:min	1g	School's-	1g	School's-	.	newline
=98	=98	=98	=98	=98	=98	=98	=98
!Tonic pedal G	!Tonic pedal G	!	!	!	!	!	!
2B-M	B-:maj	4f	-out	2b-	-out	.	.
.	.	4r	.	.	.	.	.
2CM	C:maj	4f	for	2cc	for	.	.
.	.	4r	.	.	.	.	.
=99	=99	=99	=99	=99	=99	=99	=99
1Gm	G:min	8f	su-	8f	su-	.	.
.	.	8g	-mmer.	8g	-mmer.	.	.
.	.	4r	.	4r	.	.	.
.	.	2r	.	2r	.	.	.
=100	=100	=100	=100	=100	=100	=100	=100
1Gm	G:min	1r	.	1r	.	.	.
=101	=101	=101	=101	=101	=101	=101	=101
1Gm	G:min	1g	School's-	1g	School's-	.	newline
=102	=102	=102	=102	=102	=102	=102	=102
!Tonic pedal G	!Tonic pedal G	!	!	!	!	!	!
2B-M	B-:maj	4f	-out	2b-	-out	.	.
.	.	4r	.	.	.	.	.
2CM	C:maj	4f	with	2cc	with	.	.
.	.	4r	.	.	.	.	.
=103	=103	=103	=103	=103	=103	=103	=103
1Gm	G:min	8f	fe-	8f	fe-	.	.
.	.	8g	-ver.	8g	-ver.	.	.
.	.	4r	.	4r	.	.	.
.	.	2r	.	2r	.	.	.
=104	=104	=104	=104	=104	=104	=104	=104
1Gm	G:min	1r	.	1r	.	.	.
=105	=105	=105	=105	=105	=105	=105	=105
1Gm	G:min	2g	School's-	1r	.	.	newline
.	.	2r	.	.	.	.	.
=106	=106	=106	=106	=106	=106	=106	=106
!Pedal notes of Tonic Gm triad	!Pedal notes of Tonic Gm triad	!	!	!	!	!	!
1FM	F:maj	2g	-out-	1r	.	.	.
.	.	4g	-com-	.	.	.	.
.	.	4r	.	.	.	.	.
=107	=107	=107	=107	=107	=107	=107	=107
1CM;	C:maj	8g	-plet-	1r	.	.	.
.	.	4F#	-ely.	.	.	.	.
.	.	[8G	_	.	.	.	.
.	.	2G_	_	.	.	.	.
=108	=108	=108	=108	=108	=108	=108	=108
1N	1r	1G]	_	1r	.	.	.
1r;	1r	r;	.	1r	.	.	.
*-	*-	*-	*-	*-	*-	*-	*-
!!!BillboardChartDate: 1972/07/29
!!!BillboardPeak: 7
!!!BillboardWeeksOnChart: 13
!!!COC: Alice Cooper
!!!EMD: Added comment "Shuffle" at top - Nat Condit-Schultz 2017-01-27
!!!EMD: Changed key up one half step; Also added key changes. - Nat Condit-Schultz 2017-01-27
!!!EMD: Reinterpreted chords in chorus as 1Gm 2B- 2C 1Gm 1Gm with tonic pedal; placed "Tonic pedal" in a comment. Nat Condit-Schultz 2017-01-27
!!!EMD: Shortened to match single version of song. Had to remove timestamps - Nat Condit-Schultz 2017-01-27
!!!ENC: Nathaniel Condit-Schultz
!!!EST: Awating manual error checking and editing.
!!!OTL: School's Out
!!!RDF**chordsym: original McGill chord annotation + (implied pitch class set, with bass pitch in first position)
!!!RDF**harmony: **recip + pitch class of root + harmonic quality
!!!RDF**leadinstrument: original McGill primary instrumentation annotation
!!!RDF**phrase: newline = linebreak in original McGill transcription
!!!RDF**timestamp: McGill audio timestamp in seconds
!!!RDT: 2017/01/12/
!!!SampleActualRank: 7
!!!SampleID#: 0195
!!!SampleTargetRank: 8
!!!MBID: 0395e870-aa32-468f-a4c0-372fcc6ebf18
